X:1
T:Title
%%score { ( 1 3 ) | ( 2 4 ) }
L:1/8
M:4/4
K:C
V:1 treble nm="Grand Piano"
V:3 treble 
V:2 bass 
V:4 bass 
V:1
 z4 z2[Q:1/4=104] [CE][DF] | [EG]2 [Ec]>[EB] [Ec]2 [EB]>[Ec] | d2 A>^G A2 dc | B2 D>E F2 BA | %4
 [EG]6 [CE][DF] | [EG]2 [Ec]>[EB] [Ec]2 [EB]>[Ec] | d2 A>^G A2 dc | B2 G>G A2 B2 |[M:3/4] [Ec]6 | %9
[M:1/4] [CE][DF] |[M:4/4] [EG]6 z2 | [FA]6 z2 | B2 DE FGBA | [EG]6 z2 | %14
 [EG]2 [Ec]>[EB] [Ec]2 [EB][Ec] |[M:9/8] d2 A- A/A/ [^Fd]2- [Fd] [Fc]2 |[M:4/4] B2 G>G A2 B2 | %17
[M:3/4] c2- [Fc-][Fc-] [Ec]2 |] %18
V:2
 z4 z2 [C,G,][C,G,] | [C,C]2 [C,G,]>[C,G,] [C,G,]2 [C,G,]>[C,G,] | %2
 [F,A,F]2 [F,CF]>[F,B,F] [F,CF]2 [F,A,F][F,A,F] | [G,DF]2 [G,B,]>[G,C] [G,B,D]2 [G,DF][G,B,F] | %4
 [C,C]6 [C,G,][C,G,] | [C,C]2 [C,G,]>[C,G,] [C,G,]2 [C,C]>[C,C] | %6
 [F,A,F]2 [F,CF]>[F,B,F] [F,CF]2 [F,DF][F,DF] | [G,DF]2 [G,B,F]>[G,B,F] [G,CF]2 [G,DF]2 | %8
[M:3/4][K:bass] [C,C]6 |[M:1/4] [C,G,][C,G,] |[M:4/4] [C,C]2 C,C, C,2 [C,G,][C,C] | %11
 [F,C]2 F,F, F,2[K:treble] [F,A,F]2 | [G,DF]2 [G,B,][G,C] [G,B,D][G,B,D][G,DF][G,DF] | %13
 [C,C]2 C,C, C,2 [C,G,C][C,G,] | [C,C]2 [C,G,]>[C,G,] [C,G,]2 [C,C][C,C] | %15
[M:9/8] [F,A,F]2 [F,CF]- [F,CF]/[F,A,F]/ [D,A,]2- [D,A,] [D,D]2 | %16
[M:4/4][K:treble] [G,DF]2 [G,B,F]>[G,B,F] [G,CF]2 [G,DF]2 |[M:3/4][K:bass] z2 A,A, G,2 |] %18
V:3
 x8 | x8 | x8 | x8 | x8 | x8 | x8 | x8 |[M:3/4] x6 |[M:1/4] x2 |[M:4/4] z2 CC C2 [Ec][EB] | %11
 z2 CC C2 dc | x8 | z2 CC C2 E[DF] | x8 |[M:9/8] x9 |[M:4/4] x8 |[M:3/4] [CE]2 z2 z2 |] %18
V:4
 x8 | x8 | x8 | x8 | x8 | x8 | x8 | x8 |[M:3/4][K:bass] x6 |[M:1/4] x2 |[M:4/4] x8 | %11
 x6[K:treble] x2 | x8 | x8 | x8 |[M:9/8] x9 |[M:4/4][K:treble] x8 |[M:3/4][K:bass] C,6 |] %18

